teeny/outline/question.svg

<svg width="15" height="15" viewBox="0 0 15 15" fill="none" xmlns="http://www.w3.org/2000/svg">
<path d="M7.5 12V10.7361C7.5 9.36566 8.27427 8.11287 9.5 7.5C10.7257 6.88713 11.5 5.61338 11.5 4.24297C11.5 2.19498 9.83978 0.5 7.7918 0.5H7.58498C6.24999 0.5 4.96968 1.03032 4.02569 1.97431L3.5 2.5M7 14.5H8" stroke="black"/>
</svg>

<svg viewBox="0 0 15 15" xmlns="http://www.w3.org/2000/svg"><path fill="none" stroke="#000" d="M7.5 12v-1.27c0-1.38.77-2.63 2-3.24 1.22-.62 2-1.89 2-3.26C11.5 2.18 9.83.48 7.79.48h-.21c-1.34 0-2.62.53-3.56 1.47l-.53.52m3.5 12h1"/></svg>
